T: Sestrina
M: 2/4
L: 1/8
K: Gmix
B/A/B/c/|d3d |^cA=cB|G2 A/B/A/G/|FE FG|1AF/D/ GA/B/|GD:|2 A/F/D/F/ GA/B/
|G2|
|:BD c/d/c/B/|Ac/B/ AB|GG/F/ GA|BG FE|FG AF/D/|1GA/B/ GD:|2GA/B/ G2||
c/d/c/B/ Gc/B/|AG AB|D2 zG|FE DC|zG EF|GA/B/ D2|zG FE|DCzG|EF GA/B/|GD|
%  ABC2Win Version 2.1 17/04/2005
